X:108
T:Cnott y Coed
M:2/4
L:1/8
Q:180
C:Trad.
S:Davidsons Musical Miracles 1859
R:Processional
K:G
G/A/ | BB Bc/B/ | AA AB/A/ | GE A>G | G F2 B/c/|
dd cc | BB Ac | BG A/G/A/F/ | G3 :||:
G/A/ | B2 E2 | d2 GG | Gd dc | B3 G/A/|
BB Bc/B/ | AA AB/A/ | GE A>G | G F2 D|
EE/G/ FF/A/ | Gd dc | B2 A2 | G3 :||
